static/img/kroki/f5edd6b3b7dd6c84b297987240e8e6c4.svg

<?xml version="1.0" encoding="us-ascii" standalone="no"?><svg xmlns="http://www.w3.org/2000/svg" xmlns:xlink="http://www.w3.org/1999/xlink" contentStyleType="text/css" height="374px" preserveAspectRatio="none" style="width:240px;height:374px;" version="1.1" viewBox="0 0 240 374" width="240px" zoomAndPan="magnify"><defs/><g><!--class aws_alb_target_group--><g id="elem_aws_alb_target_group"><rect codeLine="23" fill="#3D176E" height="39.7891" id="aws_alb_target_group" rx="2.5" ry="2.5" style="stroke:#000D19;stroke-width:0.5;" width="226" x="7" y="328.58"/><ellipse cx="22" cy="348.4745" fill="#ADD1B2" rx="11" ry="11" style="stroke:#181818;stroke-width:1.0;"/><path d="M24.9688,354.1152 Q24.3906,354.412 23.75,354.5527 Q23.1094,354.7089 22.4063,354.7089 Q19.9063,354.7089 18.5781,353.0683 Q17.2656,351.412 17.2656,348.287 Q17.2656,345.162 18.5781,343.5058 Q19.9063,341.8495 22.4063,341.8495 Q23.1094,341.8495 23.75,342.0058 Q24.4063,342.162 24.9688,342.4589 L24.9688,345.1777 Q24.3438,344.5995 23.75,344.3339 Q23.1563,344.0527 22.5313,344.0527 Q21.1875,344.0527 20.5,345.1308 Q19.8125,346.1933 19.8125,348.287 Q19.8125,350.3808 20.5,351.4589 Q21.1875,352.5214 22.5313,352.5214 Q23.1563,352.5214 23.75,352.2558 Q24.3438,351.9745 24.9688,351.3964 L24.9688,354.1152 Z " fill="#000000"/><text fill="#D9B8FF" font-family="Helvetica" font-size="17" lengthAdjust="spacing" textLength="184" x="41" y="354.3598">aws_alb_target_group</text></g><!--class aws_resource--><g id="elem_aws_resource"><rect codeLine="26" fill="#3D176E" height="39.7891" id="aws_resource" rx="2.5" ry="2.5" style="stroke:#000D19;stroke-width:0.5;" width="155" x="42.5" y="167.79"/><ellipse cx="57.5" cy="187.6845" fill="#ADD1B2" rx="11" ry="11" style="stroke:#181818;stroke-width:1.0;"/><path d="M60.4688,193.3252 Q59.8906,193.622 59.25,193.7627 Q58.6094,193.9189 57.9063,193.9189 Q55.4063,193.9189 54.0781,192.2783 Q52.7656,190.622 52.7656,187.497 Q52.7656,184.372 54.0781,182.7158 Q55.4063,181.0595 57.9063,181.0595 Q58.6094,181.0595 59.25,181.2158 Q59.9063,181.372 60.4688,181.6689 L60.4688,184.3877 Q59.8438,183.8095 59.25,183.5439 Q58.6563,183.2627 58.0313,183.2627 Q56.6875,183.2627 56,184.3408 Q55.3125,185.4033 55.3125,187.497 Q55.3125,189.5908 56,190.6689 Q56.6875,191.7314 58.0313,191.7314 Q58.6563,191.7314 59.25,191.4658 Q59.8438,191.1845 60.4688,190.6064 L60.4688,193.3252 Z " fill="#000000"/><text fill="#D9B8FF" font-family="Helvetica" font-size="17" lengthAdjust="spacing" textLength="113" x="76.5" y="193.5698">aws_resource</text></g><!--class resource--><g id="elem_resource"><rect codeLine="29" fill="#3D176E" height="39.7891" id="resource" rx="2.5" ry="2.5" style="stroke:#000D19;stroke-width:0.5;" width="113" x="63.5" y="7"/><ellipse cx="78.5" cy="26.8945" fill="#ADD1B2" rx="11" ry="11" style="stroke:#181818;stroke-width:1.0;"/><path d="M81.4688,32.5352 Q80.8906,32.832 80.25,32.9727 Q79.6094,33.1289 78.9063,33.1289 Q76.4063,33.1289 75.0781,31.4883 Q73.7656,29.832 73.7656,26.707 Q73.7656,23.582 75.0781,21.9258 Q76.4063,20.2695 78.9063,20.2695 Q79.6094,20.2695 80.25,20.4258 Q80.9063,20.582 81.4688,20.8789 L81.4688,23.5977 Q80.8438,23.0195 80.25,22.7539 Q79.6563,22.4727 79.0313,22.4727 Q77.6875,22.4727 77,23.5508 Q76.3125,24.6133 76.3125,26.707 Q76.3125,28.8008 77,29.8789 Q77.6875,30.9414 79.0313,30.9414 Q79.6563,30.9414 80.25,30.6758 Q80.8438,30.3945 81.4688,29.8164 L81.4688,32.5352 Z " fill="#000000"/><text fill="#D9B8FF" font-family="Helvetica" font-size="17" lengthAdjust="spacing" textLength="71" x="97.5" y="32.7798">resource</text></g><!--reverse link aws_resource to aws_alb_target_group--><g id="link_aws_resource_aws_alb_target_group"><path codeLine="32" d="M120,225.84 C120,256.36 120,297.69 120,328.25 " fill="none" id="aws_resource-backto-aws_alb_target_group" style="stroke:#FFAF37;stroke-width:2.0;"/><polygon fill="none" points="120,207.84,114,225.84,126,225.84,120,207.84" style="stroke:#FFAF37;stroke-width:2.0;"/></g><!--reverse link resource to aws_resource--><g id="link_resource_aws_resource"><path codeLine="33" d="M120,65.05 C120,95.57 120,136.9 120,167.46 " fill="none" id="resource-backto-aws_resource" style="stroke:#FFAF37;stroke-width:2.0;"/><polygon fill="none" points="120,47.05,114,65.05,126,65.05,120,47.05" style="stroke:#FFAF37;stroke-width:2.0;"/></g><!--SRC=[XP1FRu904CNlV8fDF9DWJOiclIX9qrvCKtid0pkh6s2Np0ubziztRwcrMG7r-julxxsPdPOeiAfvBogiCYGNk4AR6WWgiIIoRM9BIsAY5AXPt3SVhE6hm1eg58zOlY7h7Fh4wqxdXK7dn8rdhI0ljcGR8m_nJ63SZuM6FIefmRabC-ciOVJ6o4KsLwfFzaCdCpcDxt20MP98VqWKHNAww2DNgoxU_Kziz3kAgV-qjMKSp1nK_58NLtQ4Dt9mwD4_k_4PfDHcAsuzxUMmYGpIYRxPWRHjHoiedL_Z60ajxsjC1bVXOYvLF0e_dOE3l7kTWDQbK6Of0ssHquwinKSGV7a-eRCDvUZhfze9TVyPXk5eS3327ANW6m00]--></g></svg>

<svg xmlns="http://www.w3.org/2000/svg" width="240" height="374" viewBox="0 0 240 374"><rect width="226" height="39.789" x="7" y="328.58" fill="#3D176E" rx="2.5" ry="2.5" style="stroke:#000d19;stroke-width:.5"/><circle cx="22" cy="348.474" r="11" fill="#ADD1B2" style="stroke:#181818;stroke-width:1"/><path d="M24.969 354.115q-.578.297-1.219.438-.64.156-1.344.156-2.5 0-3.828-1.64-1.312-1.657-1.312-4.782t1.312-4.781q1.328-1.656 3.828-1.656.703 0 1.344.156.656.156 1.219.453v2.719q-.625-.579-1.219-.844-.594-.281-1.219-.281-1.343 0-2.031 1.078-.687 1.062-.687 3.156t.687 3.172q.688 1.062 2.031 1.062.625 0 1.219-.265.594-.281 1.219-.86z"/><text x="41" y="354.36" fill="#D9B8FF" font-family="Helvetica" font-size="17" textLength="184">aws_alb_target_group</text><rect width="155" height="39.789" x="42.5" y="167.79" fill="#3D176E" rx="2.5" ry="2.5" style="stroke:#000d19;stroke-width:.5"/><circle cx="57.5" cy="187.685" r="11" fill="#ADD1B2" style="stroke:#181818;stroke-width:1"/><path d="M60.469 193.325q-.578.297-1.219.438-.64.156-1.344.156-2.5 0-3.828-1.64-1.312-1.657-1.312-4.782t1.312-4.781q1.328-1.656 3.828-1.656.703 0 1.344.156.656.156 1.219.453v2.719q-.625-.578-1.219-.844-.594-.281-1.219-.281-1.343 0-2.031 1.078-.687 1.062-.687 3.156t.687 3.172q.688 1.062 2.031 1.062.625 0 1.219-.265.594-.281 1.219-.86z"/><text x="76.5" y="193.57" fill="#D9B8FF" font-family="Helvetica" font-size="17" textLength="113">aws_resource</text><rect width="113" height="39.789" x="63.5" y="7" fill="#3D176E" rx="2.5" ry="2.5" style="stroke:#000d19;stroke-width:.5"/><circle cx="78.5" cy="26.895" r="11" fill="#ADD1B2" style="stroke:#181818;stroke-width:1"/><path d="M81.469 32.535q-.578.297-1.219.438-.64.156-1.344.156-2.5 0-3.828-1.64-1.312-1.657-1.312-4.782t1.312-4.781q1.328-1.656 3.828-1.656.703 0 1.344.156.656.156 1.219.453v2.719q-.625-.578-1.219-.844-.594-.281-1.219-.281-1.344 0-2.031 1.078-.687 1.062-.687 3.156T77 29.879q.688 1.062 2.031 1.062.625 0 1.219-.265.594-.281 1.219-.86z"/><text x="97.5" y="32.78" fill="#D9B8FF" font-family="Helvetica" font-size="17" textLength="71">resource</text><path fill="none" d="M120 225.84v102.41m0-120.41-6 18h12zm0-142.79v102.41m0-120.41-6 18h12z" style="stroke:#ffaf37;stroke-width:2"/></svg>
